symbolic/24x24/emblems/emblem-system.svg

<svg xmlns="http://www.w3.org/2000/svg" width="24" height="24" version="1.1">
 <circle style="fill:#455a64" cx="12" cy="12" r="10"/>
 <path style="fill:#ffffff" d="m 10.5,5 0,1.709961 A 5.5000005,5.5000005 0 0 0 9.324219,7.2021485 L 8.111328,5.989258 5.989258,8.111328 7.199219,9.321289 A 5.5000005,5.5000005 0 0 0 6.713867,10.5 L 5,10.5 l 0,3 1.709961,0 a 5.5000005,5.5000005 0 0 0 0.4921875,1.175781 l -1.2128905,1.212891 2.12207,2.12207 1.209961,-1.209961 A 5.5000005,5.5000005 0 0 0 10.5,17.286133 L 10.5,19 l 3,0 0,-1.709961 a 5.5000005,5.5000005 0 0 0 1.175781,-0.492188 l 1.212891,1.212891 2.12207,-2.12207 -1.209961,-1.209961 A 5.5000005,5.5000005 0 0 0 17.286133,13.5 L 19,13.5 l 0,-3 -1.709961,0 A 5.5000005,5.5000005 0 0 0 16.797851,9.324219 l 1.212891,-1.212891 -2.12207,-2.12207 -1.209961,1.209961 A 5.5000005,5.5000005 0 0 0 13.5,6.713867 L 13.5,5 10.5,5 Z M 12,9.5 A 2.5,2.5 0 0 1 14.5,12 2.5,2.5 0 0 1 12,14.5 2.5,2.5 0 0 1 9.5,12 2.5,2.5 0 0 1 12,9.5 Z"/>
</svg>

<svg xmlns="http://www.w3.org/2000/svg" width="24" height="24"><circle style="fill:#455a64" cx="12" cy="12" r="10"/><path style="fill:#fff" d="M10.5 5v1.71a5.5 5.5 0 0 0-1.176.492L8.111 5.99 5.99 8.111l1.21 1.21a5.5 5.5 0 0 0-.485 1.179H5v3h1.71a5.5 5.5 0 0 0 .492 1.176L5.99 15.889l2.122 2.122 1.21-1.21a5.5 5.5 0 0 0 1.179.485V19h3v-1.71a5.5 5.5 0 0 0 1.176-.492l1.213 1.213 2.122-2.122-1.21-1.21a5.5 5.5 0 0 0 .485-1.179H19v-3h-1.71a5.5 5.5 0 0 0-.492-1.176l1.213-1.213-2.122-2.122-1.21 1.21a5.5 5.5 0 0 0-1.179-.485V5h-3zM12 9.5a2.5 2.5 0 0 1 2.5 2.5 2.5 2.5 0 0 1-2.5 2.5A2.5 2.5 0 0 1 9.5 12 2.5 2.5 0 0 1 12 9.5z"/></svg>
